app/images/main-banner_bg.svg

<svg class="main-banner__img" width="1532" height="619" fill="none" xmlns="http://www.w3.org/2000/svg">
    <mask id="a" style="mask-type:alpha" maskUnits="userSpaceOnUse" x="0" y="0" width="1532" height="619">
        <path fill="#003ECB" d="M0 0h1532v619H0z" />
    </mask>
    <g mask="url(#a)">
        <path class="main-banner__line" opacity=".25" transform="rotate(-27 -120 511.671)" fill="url(#b)"
            d="M-120 511.671h1712.97v562.471H-120z" />
        <path class="main-banner__line" opacity=".25" transform="rotate(-27 963.303 368.826)" fill="url(#c)"
            d="M963.303 368.826h856.166v222.136H963.303z" />
        <path opacity=".3"
            d="M602.848 415.888c-95.763-83.238-109.206-3.927-115.583-2.749 0 0-2.846 19.141 0 88.932l933.495 538.989V661.774c-106.16-190.132-176.41-322.94-245.49-261.591-119.7 106.108-177.986 177.371-320.355 30.134-84.382-87.262-137.072 85.496-252.067-14.429Z"
            fill="url(#d)" />
        <path opacity=".3"
            d="M726.183 482.832c-95.764-83.238-115.682-10.832-115.682-2.749v168.931L1544 1108V728.717c-151.1-219.481-250.69-178.647-337.04-146.942-84.58 31.018-115.58-33.767-222.628-126.133-88.012-75.975-143.154 127.114-258.149 27.19Z"
            fill="url(#e)" />
        <path
            d="M1238.07 395.275c0-7.853-4.61-16.785-10.21-20.025-5.69-3.239-10.2.393-10.2 8.246 0 7.852 4.61 16.785 10.2 20.024 5.6 3.337 10.21-.393 10.21-8.245Z"
            fill="#ED1C24" />
        <path
            d="M967.358 448.084c0-7.559-4.71-16.393-10.597-19.73-5.887-3.337-10.597 0-10.597 7.558s4.71 16.392 10.597 19.73c5.789 3.337 10.597 0 10.597-7.558Z"
            fill="#fff" />
        <path opacity=".07" d="M1172.72-107 1353.85-2.462v356.118l-181.13-104.539V-107Z" fill="#fff" />
        <path opacity=".3"
            d="M1318.52 28.164 1137.4-76.375l-.1 356.118 78.3 45.152 12.36 24.343 12.26-10.012 78.3 45.055V28.164Z"
            fill="url(#f)" />
        <path opacity=".1"
            d="M1294.78 139.18c0 11.387-1.67 21.791-4.81 30.528-3.14 8.736-7.75 15.607-13.54 20.318-5.79 4.712-12.75 7.068-20.31 7.068-7.55 0-15.8-2.454-23.94-7.264v-86.87l62.6 36.22Z"
            fill="#fff" />
        <path opacity=".3"
            d="M1232.18 189.928c-10.99-6.38-21.78-16.589-31.3-29.742-9.52-13.153-17.46-28.662-22.96-45.054-5.49-16.393-8.44-33.08-8.44-48.294 0-15.215 2.95-28.564 8.44-38.576l54.26 74.796v86.87Z"
            fill="#fff" />
        <path
            d="M1294.78 139.18c0-19.14-4.51-40.343-12.95-60.367-8.44-20.024-20.21-37.693-33.46-50.355-13.34-12.662-27.47-19.533-40.23-19.533-12.75 0-23.35 6.772-30.32 19.337l54.26 74.796 62.7 36.122Z"
            fill="#ED1C24" />
        <path opacity=".15"
            d="m1161.04 193.658 110.39 63.705v13.349l-110.39-63.704v-13.35ZM1161.04 219.768l133.84 77.25v13.35l-133.84-77.25v-13.35ZM1161.04 245.878l86.74 50.061v13.349l-86.74-50.06v-13.35Z"
            fill="#fff" />
        <path opacity=".07" d="M901.03-53.798 1082.16 50.74v356.117L901.03 302.319V-53.798Z" fill="#fff" />
        <path opacity=".3"
            d="M1047.32 81.561 866.198-22.977 866.1 333.24l78.396 45.152 12.265 24.245 12.265-10.012 78.294 45.055V81.562Z"
            fill="url(#g)" />
        <path opacity=".1"
            d="M1023.58 192.676c0 15.215-2.94 28.564-8.44 38.577-5.49 10.012-13.44 16.392-22.958 18.551l-31.3-93.348 62.698 36.22Z"
            fill="#fff" />
        <path opacity=".3"
            d="M992.28 249.804c-11.97 2.651-25.805-1.57-39.542-11.877-13.638-10.404-26.393-26.404-36.107-45.545l44.349-35.828 31.3 93.25Z"
            fill="#fff" />
        <path
            d="M1023.58 192.676c0-14.331-2.55-29.84-7.36-45.25-4.91-15.411-11.87-30.233-20.408-43.092-8.536-12.859-18.446-23.46-28.651-30.821-10.302-7.362-20.605-11.19-30.122-11.19-9.518 0-17.956 3.73-24.432 10.993-6.574 7.264-10.989 17.767-13.049 30.626-1.963 12.858-1.472 27.582 1.471 42.993 2.944 15.411 8.34 30.92 15.699 45.251l44.35-35.828 62.502 36.318Z"
            fill="#fff" />
        <path opacity=".15"
            d="m889.845 247.154 125.295 72.343v13.349l-125.295-72.342v-13.35ZM889.845 273.166l130.105 75.189v13.35l-130.105-75.189v-13.35ZM889.845 299.276l86.736 50.061v13.349l-86.736-50.06v-13.35Z"
            fill="#fff" />
    </g>
    <defs>
        <linearGradient id="b" x1="1649.68" y1="712.566" x2="1279.21" y2="1239.12"
            gradientUnits="userSpaceOnUse">
            <stop stop-color="#fff" />
            <stop offset="1" stop-color="#fff" stop-opacity="0" />
        </linearGradient>
        <linearGradient id="c" x1="1849.93" y1="443.878" x2="1734.64" y2="639.294"
            gradientUnits="userSpaceOnUse">
            <stop stop-color="#fff" />
            <stop offset="1" stop-color="#fff" stop-opacity="0" />
        </linearGradient>
        <linearGradient id="d" x1="1123.91" y1="187.069" x2="1004.94" y2="564.905"
            gradientUnits="userSpaceOnUse">
            <stop stop-color="#fff" />
            <stop offset="1" stop-color="#fff" stop-opacity="0" />
        </linearGradient>
        <linearGradient id="e" x1="1175.37" y1="349.729" x2="1107.8" y2="655.46" gradientUnits="userSpaceOnUse">
            <stop stop-color="#fff" />
            <stop offset="1" stop-color="#fff" stop-opacity="0" />
        </linearGradient>
        <linearGradient id="f" x1="1227.91" y1="-16.79" x2="1227.91" y2="423.305"
            gradientUnits="userSpaceOnUse">
            <stop stop-color="#fff" stop-opacity="0" />
            <stop offset="1" stop-color="#fff" />
        </linearGradient>
        <linearGradient id="g" x1="956.712" y1="33.932" x2="956.712" y2="486.711"
            gradientUnits="userSpaceOnUse">
            <stop stop-color="#fff" stop-opacity="0" />
            <stop offset="1" stop-color="#fff" />
        </linearGradient>
    </defs>
</svg>

<svg width="1532" height="619" viewBox="0 0 1532 619" fill="none" xmlns="http://www.w3.org/2000/svg">
<mask id="mask0_0:5" style="mask-type:alpha" maskUnits="userSpaceOnUse" x="0" y="0" width="1532" height="619">
<rect width="1532" height="619" fill="#003ECB"/>
</mask>
<g mask="url(#mask0_0:5)">
<rect opacity="0.25" x="-120" y="511.671" width="1712.97" height="562.471" transform="rotate(-27 -120 511.671)" fill="url(#paint0_linear_0:5)"/>
<rect opacity="0.25" x="963.303" y="368.826" width="856.166" height="222.136" transform="rotate(-27 963.303 368.826)" fill="url(#paint1_linear_0:5)"/>
<path opacity="0.3" d="M602.848 415.888C507.085 332.65 493.642 411.961 487.265 413.139C487.265 413.139 484.419 432.28 487.265 502.071L1420.76 1041.06V661.774C1314.6 471.642 1244.35 338.834 1175.27 400.183C1055.57 506.291 997.284 577.554 854.915 430.317C770.533 343.055 717.843 515.813 602.848 415.888Z" fill="url(#paint2_linear_0:5)"/>
<path opacity="0.3" d="M726.183 482.832C630.419 399.594 610.501 472 610.501 480.083C610.501 480.083 610.501 578.5 610.501 649.014L1544 1108V728.717C1392.9 509.236 1293.31 550.07 1206.96 581.775C1122.38 612.793 1091.38 548.008 984.332 455.642C896.32 379.667 841.178 582.756 726.183 482.832Z" fill="url(#paint3_linear_0:5)"/>
<path d="M1238.07 395.275C1238.07 387.422 1233.46 378.49 1227.86 375.25C1222.17 372.011 1217.66 375.643 1217.66 383.496C1217.66 391.348 1222.27 400.281 1227.86 403.52C1233.46 406.857 1238.07 403.127 1238.07 395.275Z" fill="#ED1C24"/>
<path d="M967.358 448.084C967.358 440.525 962.648 431.691 956.761 428.354C950.874 425.017 946.164 428.354 946.164 435.912C946.164 443.47 950.874 452.304 956.761 455.642C962.55 458.979 967.358 455.642 967.358 448.084Z" fill="white"/>
<path opacity="0.07" d="M1172.72 -107L1353.85 -2.4617V353.656L1172.72 249.117V-107Z" fill="white"/>
<path opacity="0.3" d="M1318.52 28.1636L1137.4 -76.3747L1137.3 279.743L1215.6 324.895L1227.96 349.238L1240.22 339.226L1318.52 384.281V28.1636Z" fill="url(#paint4_linear_0:5)"/>
<path opacity="0.1" d="M1294.78 139.18C1294.78 150.567 1293.11 160.971 1289.97 169.708C1286.83 178.444 1282.22 185.315 1276.43 190.026C1270.64 194.738 1263.68 197.094 1256.12 197.094C1248.57 197.094 1240.32 194.64 1232.18 189.83V102.96L1294.78 139.18Z" fill="white"/>
<path opacity="0.3" d="M1232.18 189.928C1221.19 183.548 1210.4 173.339 1200.88 160.186C1191.36 147.033 1183.42 131.524 1177.92 115.132C1172.43 98.7392 1169.48 82.0524 1169.48 66.8379C1169.48 51.6234 1172.43 38.2739 1177.92 28.2618L1232.18 103.058V189.928Z" fill="white"/>
<path d="M1294.78 139.18C1294.78 120.04 1290.27 98.8374 1281.83 78.8131C1273.39 58.7889 1261.62 41.1205 1248.37 28.4581C1235.03 15.7957 1220.9 8.92462 1208.14 8.92462C1195.39 8.92462 1184.79 15.6975 1177.82 28.2618L1232.08 103.058L1294.78 139.18Z" fill="#ED1C24"/>
<path opacity="0.15" d="M1161.04 193.658L1271.43 257.363V270.712L1161.04 207.008V193.658Z" fill="white"/>
<path opacity="0.15" d="M1161.04 219.768L1294.88 297.018V310.368L1161.04 233.118V219.768Z" fill="white"/>
<path opacity="0.15" d="M1161.04 245.878L1247.78 295.939V309.288L1161.04 259.228V245.878Z" fill="white"/>
<path opacity="0.07" d="M901.03 -53.7983L1082.16 50.7399V406.857L901.03 302.319V-53.7983Z" fill="white"/>
<path opacity="0.3" d="M1047.32 81.5615L866.198 -22.9767L866.1 333.239L944.496 378.391L956.761 402.636L969.026 392.624L1047.32 437.679V81.5615Z" fill="url(#paint5_linear_0:5)"/>
<path opacity="0.1" d="M1023.58 192.676C1023.58 207.891 1020.64 221.24 1015.14 231.253C1009.65 241.265 1001.7 247.645 992.182 249.804L960.882 156.456L1023.58 192.676Z" fill="white"/>
<path opacity="0.3" d="M992.28 249.804C980.31 252.455 966.475 248.234 952.738 237.927C939.1 227.523 926.345 211.523 916.631 192.382L960.98 156.554L992.28 249.804Z" fill="white"/>
<path d="M1023.58 192.676C1023.58 178.345 1021.03 162.836 1016.22 147.426C1011.31 132.015 1004.35 117.193 995.812 104.334C987.276 91.4755 977.366 80.8745 967.161 73.5126C956.859 66.1508 946.556 62.3226 937.039 62.3226C927.521 62.3226 919.083 66.0526 912.607 73.3163C906.033 80.58 901.618 91.0829 899.558 103.942C897.595 116.8 898.086 131.524 901.029 146.935C903.973 162.346 909.369 177.855 916.728 192.186L961.078 156.358L1023.58 192.676Z" fill="white"/>
<path opacity="0.15" d="M889.845 247.154L1015.14 319.497V332.846L889.845 260.504V247.154Z" fill="white"/>
<path opacity="0.15" d="M889.845 273.166L1019.95 348.355V361.705L889.845 286.516V273.166Z" fill="white"/>
<path opacity="0.15" d="M889.845 299.276L976.581 349.337V362.686L889.845 312.626V299.276Z" fill="white"/>
</g>
<defs>
<linearGradient id="paint0_linear_0:5" x1="1649.68" y1="712.566" x2="1279.21" y2="1239.12" gradientUnits="userSpaceOnUse">
<stop stop-color="white"/>
<stop offset="1" stop-color="white" stop-opacity="0"/>
</linearGradient>
<linearGradient id="paint1_linear_0:5" x1="1849.93" y1="443.878" x2="1734.64" y2="639.294" gradientUnits="userSpaceOnUse">
<stop stop-color="white"/>
<stop offset="1" stop-color="white" stop-opacity="0"/>
</linearGradient>
<linearGradient id="paint2_linear_0:5" x1="1123.91" y1="187.069" x2="1004.94" y2="564.905" gradientUnits="userSpaceOnUse">
<stop stop-color="white"/>
<stop offset="1" stop-color="white" stop-opacity="0"/>
</linearGradient>
<linearGradient id="paint3_linear_0:5" x1="1175.37" y1="349.729" x2="1107.8" y2="655.46" gradientUnits="userSpaceOnUse">
<stop stop-color="white"/>
<stop offset="1" stop-color="white" stop-opacity="0"/>
</linearGradient>
<linearGradient id="paint4_linear_0:5" x1="1227.91" y1="-16.7903" x2="1227.91" y2="423.305" gradientUnits="userSpaceOnUse">
<stop stop-color="white" stop-opacity="0"/>
<stop offset="1" stop-color="white"/>
</linearGradient>
<linearGradient id="paint5_linear_0:5" x1="956.712" y1="33.9325" x2="956.712" y2="486.711" gradientUnits="userSpaceOnUse">
<stop stop-color="white" stop-opacity="0"/>
<stop offset="1" stop-color="white"/>
</linearGradient>
</defs>
</svg>
